packages/calcite-ui-icons/icons/square-brackets-x-24.svg

<?xml version="1.0" encoding="UTF-8"?><svg id="icons" xmlns="http://www.w3.org/2000/svg" viewBox="0 0 24 24"><rect width="24" height="24" style="fill:none;"/><path d="M19,2h4v20h-4v-1h3V3h-3v-1ZM3,21V3h3v-1H2v20h4v-1h-3ZM18.27051,5l-5.66016,6.60352-3.30176-6.60352h-2.30859v1h1.69141l3.21338,6.4267-5.63428,6.5733h-.27051v1h.72949l5.66016-6.60352,3.30176,6.60352h2.30859v-1h-1.69141l-3.21338-6.4267,5.63428-6.5733h.27051v-1h-.72949Z"/></svg>

<svg xmlns="http://www.w3.org/2000/svg" viewBox="0 0 24 24"><path fill="none" d="M0 0h24v24H0z"/><path d="M19 2h4v20h-4v-1h3V3h-3V2zM3 21V3h3V2H2v20h4v-1H3zM18.27 5l-5.66 6.604L9.31 5H7v1h1.691l3.214 6.427L6.27 19H6v1h.73l5.66-6.604L15.69 20H18v-1h-1.691l-3.214-6.427L18.73 6H19V5h-.73z"/></svg>
